!!!OTL: Hedong changge hexi ying
!!!ARE: Asia, China,ÿJiangsu haimen
!! III, 455
!!!SCT: C2020
!!!YEM: Copyright 1995, estate of Helmut Schaffrath.
**kern
*ICvox
*Ivox
!! Mixed meters:  3/4; 4/4
*M4/4
*k[f#]
*G:
{8b
16a
16g
8a
8b
2a}
=1
{16b
16e
[8a
4a]
2d
=2
*M3/4
8e
8g
2a}
=3
{8e
8g
8e
8d
8g
8a
=4
*M4/4
16dd
16b
4a
8g
4e
4r}
=5
{8e
8g
8a
8b
16a
16b
4g
8e
=6
8g
16a
16b
16a
16g
8e
2d}
=7
{8g
8a
8dd
16dd
16b
8b
4a
8b
=8
8e
8g
8a
8b
16e
16g
4.e}
==
!!!AGN: Shange, Dayingtao
!! Freely
!!!AMT: irregular
!!!AIN: vox
!!!EED: Helmut Schaffrath
!!!EEV: 1.0
*-
